X: 67
T:Briul Pe Opt 
O:Romania
S:presented by Mihai and Alexandru David, Gypsy Camp Vol II
F: http://www.youtube.com/watch?v=E7ZAms7Jb40
F: http://www.youtube.com/watch?v=sED9EeDiCMA
L:1/8
M:2/4
K:Amix
Q:1/4=112
%%MIDI gchord GzIz
%%MIDI program 72
%%MIDI chordprog 26
%%MIDI chordvol 70
%%MIDI beat 93 83 73 4
  "A" a2 ae'         |a2 ae'       |a2 ae'              |a2 a^g       |\
  a2 ae'             |a2 ae'       |a2 ae'              |a2 a^g       |
|:a2 g/f/e/f/       |g/f/e/d/ cA | a2 g/f/e/f/       |g/f/e/d/ cA  |\
  a2 g/f/e/f/       |g/f/e/d/ cA | g/f/e/d/ cA       |Aa Aa        :|
|:c/d/e/f/ g/f/e/f/ |g/f/e/f/ cA | c/d/e/f/ g/f/e/f/ |g/f/e/f/ cA  |
  c/d/e/f/ g/f/e/f/ |g/f/e/f/ cA | g/f/e/f/ cA       |Aa Aa        :|
|:"D"d2 f2          |d2 f2       |d2 f2              |[1 d2 c/B/A  :|[2 A B/c/d2|\
|:f/g/a b/a/a       | f/g/a b/a/a| f/g/a b/a/a       |[1 fe f2     :|[2 fe d2   |
|:"A"a2 g/f/e/f/    |g/f/e/d/ cA | a2 g/f/e/f/       |g/f/e/d/ cA  |\
  a2 g/f/e/f/       |g/f/e/d/ cA | g/f/e/d/ cA       |Aa Aa        :|
|:c/d/e/f/ g/f/e/f/ |g/f/e/f/ cA | c/d/e/f/ g/f/e/f/ |g/f/e/f/ cA  |
  c/d/e/f/ g/f/e/f/ |g/f/e/f/ cA | g/f/e/f/ cA       |Aa Aa        :|



